svgs/sharp-solid/train-subway.svg

<svg xmlns="http://www.w3.org/2000/svg" viewBox="0 0 448 512"><!--! Font Awesome Pro 6.6.0 by @fontawesome - https://fontawesome.com License - https://fontawesome.com/license (Commercial License) Copyright 2024 Fonticons, Inc. --><path d="M448 0L0 0 0 448l66.7 0L25.4 489.4 2.8 512l90.5 0 64-64 133.5 0 64 64 90.5 0-22.6-22.6L381.3 448l66.7 0L448 0zM208 96l0 160L64 256 64 96l144 0zm32 0l144 0 0 160-144 0 0-160zM96 320a32 32 0 1 1 0 64 32 32 0 1 1 0-64zm224 32a32 32 0 1 1 64 0 32 32 0 1 1 -64 0z"/></svg>

<svg xmlns="http://www.w3.org/2000/svg" viewBox="0 0 448 512"><!--! Font Awesome Pro 6.4.0 by @fontawesome - https://fontawesome.com License - https://fontawesome.com/license (Commercial License) Copyright 2023 Fonticons, Inc. --><path d="M448 0H0V448H66.7L25.4 489.4 2.8 512H93.3l64-64H290.7l64 64h90.5l-22.6-22.6L381.3 448H448V0zM208 96V256H64V96H208zm32 0H384V256H240V96zM96 320a32 32 0 1 1 0 64 32 32 0 1 1 0-64zm224 32a32 32 0 1 1 64 0 32 32 0 1 1 -64 0z"/></svg>
